src/qt/pivx/res/img/img-nav-logo.svg

<?xml version="1.0" encoding="UTF-8"?>
<!-- Created with Inkscape (http://www.inkscape.org/) -->
<svg width="33.867mm" height="33.867mm" version="1.1" viewBox="0 0 33.867 33.867" xmlns="http://www.w3.org/2000/svg" xmlns:cc="http://creativecommons.org/ns#" xmlns:dc="http://purl.org/dc/elements/1.1/" xmlns:rdf="http://www.w3.org/1999/02/22-rdf-syntax-ns#">
 <defs>
  <style>.cls-1{fill:none;}.cls-2{fill:#ed1c24;}.cls-3{fill:#fff;}.cls-4{font-size:24.1px;fill:#333;font-family:Nunito-Regular, Nunito;letter-spacing:0.2em;}</style>
 </defs>
 <metadata>
  <rdf:RDF>
   <cc:Work rdf:about="">
    <dc:format>image/svg+xml</dc:format>
    <dc:type rdf:resource="http://purl.org/dc/dcmitype/StillImage"/>
    <dc:title/>
   </cc:Work>
  </rdf:RDF>
 </metadata>
 <g transform="translate(-4.9893 -5.656)">
  <g transform="matrix(.26458 0 0 .26458 4.9893 5.656)" data-name="Layer 2">
   <g data-name="Layer 1">
    <g data-name="Layer 2">
     <g id="Logo">
      <rect class="cls-1" width="128" height="128" fill="none"/>
      <g fill="#ed1c24">
       <path class="cls-2" d="m18 79.29a15.37 15.37 0 0 1-1.65 7.39 11.36 11.36 0 0 1-4.51 4.65 14.35 14.35 0 0 1-6.55 1.75v-4.63a8.41 8.41 0 0 0 5.65-2.45q2.24-2.24 2.24-6.87v-29h4.82z"/>
       <path class="cls-2" d="m24.43 76.94a5.83 5.83 0 0 1 6.12-6.08 5.73 5.73 0 0 1 6 6v5.57h-2.5v-2.17a4.11 4.11 0 0 1-4 2.52 5.55 5.55 0 0 1-5.62-5.84zm9.41-0.12a3.33 3.33 0 1 0-3.32 3.41 3.21 3.21 0 0 0 3.32-3.41z"/>
       <path class="cls-2" d="m42.94 76.82a5.82 5.82 0 0 1 6.1-6 5.68 5.68 0 0 1 5.86 4.58h-2.75a3.41 3.41 0 1 0 0 2.84h2.75a5.68 5.68 0 0 1-5.9 4.54 5.82 5.82 0 0 1-6.06-5.96z"/>
       <path class="cls-2" d="m61.66 66.21h2.73v9.9l4.49-5h3.48l-5.36 5.6 5.53 5.77h-3.53l-4.62-5.11v5.11h-2.72z"/>
       <path class="cls-2" d="m78.59 76.91a5.73 5.73 0 0 1 6-6 5.83 5.83 0 0 1 6.12 6.08 5.56 5.56 0 0 1-5.64 5.84 4.3 4.3 0 0 1-3.78-2v6.49h-2.7zm9.4-0.09a3.34 3.34 0 1 0-3.35 3.41 3.23 3.23 0 0 0 3.36-3.41z"/>
       <path class="cls-2" d="m96.65 76.82a6.1 6.1 0 1 1 6.09 6 5.81 5.81 0 0 1-6.09-6zm9.41 0a3.33 3.33 0 1 0-3.32 3.41 3.21 3.21 0 0 0 3.32-3.41z"/>
       <path class="cls-2" d="m115.21 78.13v-11h2.72v4h5.85v2.48h-5.85v4.49c0 1.51 0.78 2.1 1.9 2.1s1.91-0.57 1.91-2.1v-0.3h2.72v0.3c0 3.14-1.88 4.65-4.63 4.65s-4.62-1.48-4.62-4.62z"/>
      </g>
      <g fill="#fff">
       <circle class="cls-3" cx="42.72" cy="46.09" r="15.19"/>
       <circle class="cls-3" cx="95.46" cy="46.09" r="15.19"/>
       <circle class="cls-3" cx="68.68" cy="46.09" r="15.19"/>
      </g>
      <g fill="#333333" font-family="Nunito-Regular, Nunito" font-size="24.092px" letter-spacing=".2em" stroke-width=".99968">
       <text class="cls-4" transform="scale(.99101 1.0091)" x="36.158607" y="54.880756">7</text>
       <text class="cls-4" transform="scale(.99101 1.0091)" x="63.159412" y="54.880756">7</text>
       <text class="cls-4" transform="scale(.99101 1.0091)" x="90.252037" y="54.880756">7</text>
      </g>
     </g>
    </g>
   </g>
  </g>
 </g>
</svg>

<?xml version="1.0" encoding="UTF-8" standalone="no"?>
<svg
   xmlns:dc="http://purl.org/dc/elements/1.1/"
   xmlns:cc="http://creativecommons.org/ns#"
   xmlns:rdf="http://www.w3.org/1999/02/22-rdf-syntax-ns#"
   xmlns:svg="http://www.w3.org/2000/svg"
   xmlns="http://www.w3.org/2000/svg"
   xmlns:sodipodi="http://sodipodi.sourceforge.net/DTD/sodipodi-0.dtd"
   xmlns:inkscape="http://www.inkscape.org/namespaces/inkscape"
   viewBox="0 0 128 128"
   version="1.1"
   id="svg38"
   sodipodi:docname="img-nav-logo.svg"
   inkscape:version="0.92.4 (5da689c313, 2019-01-14)">
  <metadata
     id="metadata42">
    <rdf:RDF>
      <cc:Work
         rdf:about="">
        <dc:format>image/svg+xml</dc:format>
        <dc:type
           rdf:resource="http://purl.org/dc/dcmitype/StillImage" />
      </cc:Work>
    </rdf:RDF>
  </metadata>
  <sodipodi:namedview
     pagecolor="#ffffff"
     bordercolor="#666666"
     borderopacity="1"
     objecttolerance="10"
     gridtolerance="10"
     guidetolerance="10"
     inkscape:pageopacity="0"
     inkscape:pageshadow="2"
     inkscape:window-width="640"
     inkscape:window-height="480"
     id="namedview40"
     showgrid="false"
     inkscape:zoom="5.7339221"
     inkscape:cx="125.56136"
     inkscape:cy="59.612488"
     inkscape:current-layer="Logo" />
  <defs
     id="defs4">
    <style
       id="style2">.cls-1{fill:none;}.cls-2{fill:#ed1c24;}.cls-3{fill:#fff;}.cls-4{font-size:24.1px;fill:#333;font-family:Nunito-Regular, Nunito;letter-spacing:0.2em;}</style>
  </defs>
  <g
     id="Layer_2"
     data-name="Layer 2">
    <g
       id="Layer_1-2"
       data-name="Layer 1">
      <g
         id="Layer_2-2"
         data-name="Layer 2">
        <g
           id="Logo">
          <rect
             class="cls-1"
             width="128"
             height="128"
             id="rect6" />
          <path
             class="cls-2"
             d="M18,79.29a15.37,15.37,0,0,1-1.65,7.39,11.36,11.36,0,0,1-4.51,4.65,14.35,14.35,0,0,1-6.55,1.75V88.45A8.41,8.41,0,0,0,10.94,86q2.24-2.24,2.24-6.87v-29H18Z"
             id="path8" />
          <path
             class="cls-2"
             d="M24.43,76.94a5.83,5.83,0,0,1,6.12-6.08,5.73,5.73,0,0,1,6,6v5.57h-2.5V80.26a4.11,4.11,0,0,1-4,2.52A5.55,5.55,0,0,1,24.43,76.94Zm9.41-.12a3.33,3.33,0,1,0-3.32,3.41A3.21,3.21,0,0,0,33.84,76.82Z"
             id="path10" />
          <path
             class="cls-2"
             d="M42.94,76.82a5.82,5.82,0,0,1,6.1-6A5.68,5.68,0,0,1,54.9,75.4H52.15a3.41,3.41,0,1,0,0,2.84H54.9A5.68,5.68,0,0,1,49,82.78,5.82,5.82,0,0,1,42.94,76.82Z"
             id="path12" />
          <path
             class="cls-2"
             d="M61.66,66.21h2.73v9.9l4.49-5h3.48L67,76.71l5.53,5.77H69l-4.62-5.11v5.11H61.66Z"
             id="path14" />
          <path
             class="cls-2"
             d="M78.59,76.91a5.73,5.73,0,0,1,6-6,5.83,5.83,0,0,1,6.12,6.08,5.56,5.56,0,0,1-5.64,5.84,4.3,4.3,0,0,1-3.78-2v6.49H78.59Zm9.4-.09a3.34,3.34,0,1,0-3.35,3.41A3.23,3.23,0,0,0,88,76.82Z"
             id="path16" />
          <path
             class="cls-2"
             d="M96.65,76.82a6.1,6.1,0,1,1,6.09,6A5.81,5.81,0,0,1,96.65,76.82Zm9.41,0a3.33,3.33,0,1,0-3.32,3.41A3.21,3.21,0,0,0,106.06,76.82Z"
             id="path18" />
          <path
             class="cls-2"
             d="M115.21,78.13v-11h2.72v4h5.85v2.48h-5.85v4.49c0,1.51.78,2.1,1.9,2.1s1.91-.57,1.91-2.1v-.3h2.72v.3c0,3.14-1.88,4.65-4.63,4.65S115.21,81.27,115.21,78.13Z"
             id="path20" />
          <circle
             class="cls-3"
             cx="42.72"
             cy="46.09"
             r="15.19"
             id="circle22" />
          <circle
             class="cls-3"
             cx="95.46"
             cy="46.09"
             r="15.19"
             id="circle24" />
          <circle
             class="cls-3"
             cx="68.68"
             cy="46.09"
             r="15.19"
             id="circle26" />
          <text
             class="cls-4"
             id="text28"
             x="36.158607"
             y="54.880756"
             style="font-size:24.09236908px;font-family:Nunito-Regular, Nunito;letter-spacing:0.2em;fill:#333333;stroke-width:0.99968338"
             transform="scale(0.99100761,1.009074)">7</text>
          <text
             class="cls-4"
             transform="scale(0.9910076,1.009074)"
             id="text30"
             x="63.159412"
             y="54.880756"
             style="font-size:24.09236908px;font-family:Nunito-Regular, Nunito;letter-spacing:0.2em;fill:#333333;stroke-width:0.99968338">7</text>
          <text
             class="cls-4"
             transform="scale(0.9910076,1.009074)"
             id="text32"
             x="90.252037"
             y="54.880756"
             style="font-size:24.09236908px;font-family:Nunito-Regular, Nunito;letter-spacing:0.2em;fill:#333333;stroke-width:0.99968338">7</text>
        </g>
      </g>
    </g>
  </g>
</svg>
